lib/brands/icons/google-forms.svg

<svg xmlns="http://www.w3.org/2000/svg" fill="none" aria-hidden="true" viewBox="0 0 48 48"><g id="google-forms-Icon"><g id="Group"><path id="Vector" fill="#673AB7" d="M27.4286 6H12.8579C11.4856 6 10.2861 7.19947 10.2861 8.57174V39.4283C10.2861 40.7991 11.4856 42 12.8579 42H35.1424C36.5132 42 37.7142 40.8005 37.7142 39.4283V16.2855L31.7139 12.0002L27.4286 6Z"/><path id="Vector_2" fill="#F1F1F1" d="M20.5714 32.5698H30.8569V30.8563H20.5714V32.5698ZM20.5714 21.4275V23.1411H30.8569V21.4275H20.5714ZM19.0278 22.2857C19.0278 22.9712 18.5137 23.6566 17.657 23.6566C16.8002 23.6566 16.2861 23.1425 16.2861 22.2857C16.2861 21.429 16.8002 20.9149 17.657 20.9149C18.5137 20.9149 19.0278 21.5989 19.0278 22.2857ZM19.0278 27.0851C19.0278 27.7705 18.5137 28.4559 17.657 28.4559C16.8002 28.4559 16.2861 27.9418 16.2861 27.0851C16.2861 26.2283 16.8002 25.7143 17.657 25.7143C18.5137 25.7143 19.0278 26.3997 19.0278 27.0851ZM19.0278 31.7131C19.0278 32.3985 18.5137 33.0839 17.657 33.0839C16.8002 33.0839 16.2861 32.5698 16.2861 31.7131C16.2861 30.8563 16.8002 30.3422 17.657 30.3422C18.5137 30.3422 19.0278 31.0276 19.0278 31.7131ZM20.5714 28.2845H30.8569V26.5696H20.5714V28.2845Z"/><path id="Vector_3" fill="url(#paint0_linear_94_17827)" d="M28.1143 15.6001L37.7144 25.0288V16.2855L28.1143 15.6001Z"/><path id="Vector_4" fill="#B39DDB" d="M27.4287 6V13.7138C27.4287 15.0846 28.6282 16.2855 30.0004 16.2855H37.7142L27.4287 6Z"/><path id="Vector_5" fill="white" fill-opacity="0.2" d="M12.8579 6C11.4856 6 10.2861 7.19947 10.2861 8.57174V8.74309C10.2861 7.37083 11.4856 6.17135 12.8579 6.17135H27.4286V6H12.8579Z"/><path id="Vector_6" fill="#311B92" fill-opacity="0.2" d="M35.1424 41.8272H12.8579C11.4856 41.8272 10.2861 40.6277 10.2861 39.2555V39.4268C10.2861 40.7976 11.4856 41.9986 12.8579 41.9986H35.1424C36.5132 41.9986 37.7142 40.7991 37.7142 39.4268V39.2555C37.7142 40.6277 36.5132 41.8272 35.1424 41.8272Z"/><path id="Vector_7" fill="#311B92" fill-opacity="0.1" d="M29.999 16.2855C28.6282 16.2855 27.4272 15.086 27.4272 13.7138V13.8851C27.4272 15.2559 28.6267 16.4569 29.999 16.4569H37.7128V16.2855H29.999Z"/><path id="Vector_8" fill="url(#paint1_radial_94_17827)" d="M27.4286 6H12.8579C11.4856 6 10.2861 7.19947 10.2861 8.57174V39.4283C10.2861 40.7991 11.4856 42 12.8579 42H35.1424C36.5132 42 37.7142 40.8005 37.7142 39.4283V16.2855L27.4286 6Z"/></g></g><defs><linearGradient id="paint0_linear_94_17827" x1="32.9137" x2="32.9137" y1="16.3505" y2="25.0649" gradientUnits="userSpaceOnUse"><stop stop-color="#311B92" stop-opacity="0.2"/><stop offset="1" stop-color="#311B92" stop-opacity="0.02"/></linearGradient><radialGradient id="paint1_radial_94_17827" cx="0" cy="0" r="1" gradientTransform="matrix(353.788 0 0 353.785 11.154 6.96)" gradientUnits="userSpaceOnUse"><stop stop-color="white" stop-opacity="0.1"/><stop offset="1" stop-color="white" stop-opacity="0"/></radialGradient></defs></svg>

<svg xmlns="http://www.w3.org/2000/svg" fill="none" aria-hidden="true" viewBox="0 0 48 48"><path fill="#673AB7" d="M27.429 6H12.858c-1.372 0-2.572 1.2-2.572 2.572v30.856c0 1.371 1.2 2.572 2.572 2.572h22.284c1.371 0 2.572-1.2 2.572-2.572V16.286l-6-4.286-4.285-6Z"/><path fill="#F1F1F1" d="M20.571 32.57h10.286v-1.714H20.57v1.714Zm0-11.143v1.714h10.286v-1.713H20.57Zm-1.543.859c0 .685-.514 1.37-1.371 1.37s-1.37-.514-1.37-1.37c0-.857.513-1.371 1.37-1.371.857 0 1.37.684 1.37 1.37Zm0 4.8c0 .684-.514 1.37-1.371 1.37s-1.37-.514-1.37-1.37c0-.858.513-1.372 1.37-1.372.857 0 1.37.686 1.37 1.371Zm0 4.627c0 .685-.514 1.37-1.371 1.37s-1.37-.513-1.37-1.37c0-.857.513-1.37 1.37-1.37.857 0 1.37.685 1.37 1.37Zm1.543-3.428h10.286V26.57H20.57v1.715Z"/><path fill="url(#a)" d="m28.114 15.6 9.6 9.429v-8.744l-9.6-.685Z"/><path fill="#B39DDB" d="M27.429 6v7.714c0 1.37 1.2 2.571 2.571 2.571h7.714L27.43 6Z"/><path fill="#fff" fill-opacity=".2" d="M12.858 6c-1.372 0-2.572 1.2-2.572 2.572v.171c0-1.372 1.2-2.572 2.572-2.572h14.57V6h-14.57Z"/><path fill="#311B92" fill-opacity=".2" d="M35.142 41.827H12.858c-1.372 0-2.572-1.2-2.572-2.572v.172c0 1.37 1.2 2.572 2.572 2.572h22.284c1.371 0 2.572-1.2 2.572-2.572v-.172c0 1.373-1.2 2.572-2.572 2.572Z"/><path fill="#311B92" fill-opacity=".1" d="M29.999 16.285c-1.37 0-2.572-1.199-2.572-2.571v.171c0 1.37 1.2 2.572 2.572 2.572h7.714v-.172h-7.714Z"/><path fill="url(#b)" d="M27.429 6H12.858c-1.372 0-2.572 1.2-2.572 2.572v30.856c0 1.371 1.2 2.572 2.572 2.572h22.284c1.371 0 2.572-1.2 2.572-2.572V16.286L27.43 6Z"/><defs><radialGradient id="b" cx="0" cy="0" r="1" gradientTransform="matrix(353.788 0 0 353.785 11.154 6.96)" gradientUnits="userSpaceOnUse"><stop stop-color="#fff" stop-opacity=".1"/><stop offset="1" stop-color="#fff" stop-opacity="0"/></radialGradient><linearGradient id="a" x1="32.914" x2="32.914" y1="16.351" y2="25.065" gradientUnits="userSpaceOnUse"><stop stop-color="#311B92" stop-opacity=".2"/><stop offset="1" stop-color="#311B92" stop-opacity=".02"/></linearGradient></defs></svg>
